X:117
T:Reel 117
M:4/4
K:Gmaj
L:1/8
d>cBG AG|Bd (3def g2fg|e>A (3BAG B>A (3AAA |cBAG EGG2:|b>d' (3d'd'd' b>g (3ggg |a>g (3ggg agg2|ad'e'd'  (3c'd'c' baga|egdB ded2|b>d' (3d'e'd' b>g (3ggg |b>d' (3d'd'd' e'gd'2|e'd'd'c' d'bga| (3efg dB AGG2|
